images/qsp.svg

<svg height="250" viewBox="0 0 250 250" width="250" xmlns="http://www.w3.org/2000/svg"><path d="m220.84375 133.25c.011719-19.125-5.472656-37.839844-15.777344-53.859375l38.300782-38.84375-28.765626-29.175781-38.277343 38.84375c-32.28125-21.351563-73.953125-21.351563-106.234375 0l-38.335938-38.84375-28.773437 29.175781 38.304687 38.839844c-21.050781 32.738281-21.050781 74.996093 0 107.730469l-38.304687 38.847656 28.773437 29.179687 38.304688-38.84375c32.28125 21.347657 73.953125 21.347657 106.234375 0l38.304687 38.84375 28.769532-29.179687-38.300782-38.8125c10.3125-16.03125 15.796875-34.761719 15.777344-53.902344zm-154.644531 0c-.042969-23.589844 14.0625-44.835938 35.628906-53.675781 21.570313-8.835938 46.269531-3.492188 62.402344 13.503906 16.132812 17 20.457031 42.234375 10.921875 63.75l-37.585938-38.164063-28.78125 29.183594 37.597656 38.117188c-17.613281 8.03125-38.046874 6.449218-54.253906-4.207032-16.203125-10.652343-25.972656-28.921874-25.929687-48.507812zm0 0" fill="#052892"/></svg>

<svg xmlns="http://www.w3.org/2000/svg" xmlns:xlink="http://www.w3.org/1999/xlink" width="250px" height="250px" viewBox="0 0 250 250" version="1.1">
<g id="surface1">
<path style=" stroke:none;fill-rule:nonzero;fill:rgb(1.960784%,15.686275%,57.254905%);fill-opacity:1;" d="M 220.84375 133.25 C 220.855469 114.125 215.371094 95.410156 205.066406 79.390625 L 243.367188 40.546875 L 214.601562 11.371094 L 176.324219 50.214844 C 144.042969 28.863281 102.371094 28.863281 70.089844 50.214844 L 31.753906 11.371094 L 2.980469 40.546875 L 41.285156 79.386719 C 20.234375 112.125 20.234375 154.382812 41.285156 187.117188 L 2.980469 225.964844 L 31.753906 255.144531 L 70.058594 216.300781 C 102.339844 237.648438 144.011719 237.648438 176.292969 216.300781 L 214.597656 255.144531 L 243.367188 225.964844 L 205.066406 187.152344 C 215.378906 171.121094 220.863281 152.390625 220.84375 133.25 Z M 66.199219 133.25 C 66.15625 109.660156 80.261719 88.414062 101.828125 79.574219 C 123.398438 70.738281 148.097656 76.082031 164.230469 93.078125 C 180.363281 110.078125 184.6875 135.3125 175.152344 156.828125 L 137.566406 118.664062 L 108.785156 147.847656 L 146.382812 185.964844 C 128.769531 193.996094 108.335938 192.414062 92.128906 181.757812 C 75.925781 171.105469 66.15625 152.835938 66.199219 133.25 Z M 66.199219 133.25 "/>
</g>
</svg>
